X: 1
T: Barbarini's Tambourine
M: 2/4
L: 1/8
Q: 1/4=108
S: Dick Atlee's collection (2016)
K: D
"A7"f/g/ |\
"D"ad dd | de ef |\
{g}fe/f/ "G"g/f/e/d/ | "A"eA Af/g/ |\
"D"ad dd | de ef |
{g}fe/f/ "G"g/f/e/d/ | "A"e3 :|\
|:  c/d/ |\
"A"eA AA | A3d/e/ |\
"Bm"fB BB | B3e/f/ |\
"A/C#"gc cf/g/ |
"Bm"ad df/g/ |\
"G"bg "A"c'a | "Bm"d'/c'/b/a/ "A7"ga/g/ |\
"D"{g}fe/d/ "A"{f}ed/c/ | "D"{e}dc/B/ "A"AG |\
"D"Fd "A"Ec | "D"D3 :||
